components/AnnouncementBar/logos/color-gsr.svg

<svg width="202" height="118" viewBox="0 0 202 118" fill="none" xmlns="http://www.w3.org/2000/svg">
<g clip-path="url(#clip0_0:1)">
<g style="mix-blend-mode:multiply">
<g style="mix-blend-mode:multiply">
<path d="M13.9777 87.6282C14.2936 87.9189 16.3821 88.3991 17.0456 88.5571C20.1578 89.2964 22.2999 89.8683 25.5006 89.9473C34.5843 90.1779 44.341 85.3438 49.5701 78.2759C53.8481 72.4876 54.9066 66.437 57.8576 59.9094C60.3852 54.3043 68.5148 50.0673 73.8829 55.486C78.496 60.14 76.8623 67.7893 75.1467 73.1321C73.6238 77.8999 67.965 88.298 56.777 93.8746C39.4247 102.5 22.4737 95.9726 13.9777 87.6282Z" fill="#3379BC"/>
</g>
</g>
<path d="M2.46417 55.6725C2.46417 55.6725 3.57637 39.1733 19.5985 28.8163C25.0993 25.2617 32.401 24.5793 33.7281 29.663C34.4453 32.4087 34.2083 36.4181 25.7439 40.7215C22.3473 42.4466 17.9397 43.0311 11.7691 46.178C3.91757 50.1907 2.46417 55.6725 2.46417 55.6725Z" fill="#4492CE"/>
<path d="M47.6018 60.9711C51.0114 60.9711 53.7755 58.207 53.7755 54.7973C53.7755 51.3876 51.0114 48.6235 47.6018 48.6235C44.1921 48.6235 41.428 51.3876 41.428 54.7973C41.428 58.207 44.1921 60.9711 47.6018 60.9711Z" fill="#4492CE"/>
<g style="mix-blend-mode:multiply">
<g style="mix-blend-mode:multiply">
<path d="M22.3094 53.4988C22.3264 54.2568 22.0375 54.9899 21.5079 55.5326C20.9783 56.0752 20.2525 56.3819 19.4943 56.3834C17.8959 56.427 16.5647 55.1667 16.5211 53.5683C16.4775 51.9699 17.7379 50.6387 19.3363 50.5951C20.9529 50.5913 22.275 51.8825 22.3094 53.4988Z" fill="#50A5D4"/>
</g>
</g>
<path d="M37.7471 36.9647C39.1186 36.9647 40.2305 35.8529 40.2305 34.4813C40.2305 33.1098 39.1186 31.9979 37.7471 31.9979C36.3755 31.9979 35.2637 33.1098 35.2637 34.4813C35.2637 35.8529 36.3755 36.9647 37.7471 36.9647Z" fill="#306BB2"/>
<g style="mix-blend-mode:multiply">
<g style="mix-blend-mode:multiply">
<path d="M10.6507 60.8889C15.5354 74.3075 30.9983 71.6598 41.1405 75.4008C52.6192 79.6314 51.2511 91.8115 41.0583 95.0216C31.5133 98.0295 13.6334 93.7578 5.54807 76.1685C-6.02543 50.9837 14.7045 32.3613 16.6634 31.0058C18.8498 29.4924 21.9904 28.0769 23.1721 30.5382C24.3537 32.9995 22.1168 35.2775 19.9778 36.4055C13.883 39.6567 10.24 43.148 9.21627 50.2728C8.84657 52.9711 8.90347 56.0895 10.6507 60.8889Z" fill="#50A5D4"/>
</g>
</g>
<g style="mix-blend-mode:screen" opacity="0.5">
<g style="mix-blend-mode:screen" opacity="0.5">
<path d="M4.18309 72.2633C5.35209 75.4703 7.19409 79.5303 9.90499 79.5688C12.4832 79.6061 13.2921 75.7957 11.2005 73.6061C9.35839 71.6788 7.69329 69.2838 6.89709 67.0848C6.12299 64.9458 5.58589 58.7815 7.86709 54.4813C11.1562 48.2759 13.0425 49.7767 17.3995 46.02C21.3584 42.5919 19.7565 34.8858 11.5006 39.0279C6.17989 41.6977 -1.92751 55.5303 4.18309 72.2633Z" fill="#8BD5F2"/>
</g>
</g>
<path d="M190.676 62.7909C193.118 62.02 195.014 60.6961 196.363 58.7246C197.712 56.753 199.321 54.2096 199.321 51.0374C199.321 48.7246 199.005 46.7783 198.357 45.1732C197.777 43.6578 196.827 42.3118 195.592 41.2585C194.318 40.2288 192.824 39.5065 191.226 39.1479C189.329 38.7163 187.386 38.5157 185.441 38.5508H167.915V81.3091H177.106V45.3438H182.161C183.15 45.3602 184.138 45.4351 185.118 45.5682C185.936 45.6575 186.725 45.9192 187.434 46.3359C188.089 46.7425 188.613 47.328 188.945 48.0231C189.308 48.753 189.491 49.7672 189.491 51.05C189.522 52.0863 189.334 53.1175 188.941 54.0769C188.616 54.8416 188.095 55.5074 187.431 56.0073C186.778 56.4732 186.041 56.8089 185.261 56.9963L185.14 57.0374C182.698 57.704 180.129 60.7972 181.87 64.1053C182 64.3486 182.114 64.4908 182.218 64.7372L191.273 81.3217H201.788L190.676 62.7909Z" fill="#083756"/>
<path d="M111.57 64.1243H117.573V74.3613C117.07 74.4528 116.561 74.5172 116.05 74.554C115.535 74.5982 115.011 74.6298 114.433 74.652C113.855 74.6741 112.133 74.693 111.589 74.7151C111.046 74.7373 108.231 74.7467 107.845 74.7467C105.147 74.7467 103.177 73.4671 101.937 70.9079C100.696 68.3486 100.076 64.7457 100.076 60.099C100.076 55.4503 100.718 51.8463 102.003 49.287C103.288 46.7278 105.451 45.4482 108.493 45.4482C110.035 45.4482 112.96 45.3755 114.929 45.4482C115.807 45.4861 118.24 45.3028 119.406 45.2396C122.679 45.0627 124.079 40.2349 124.079 40.2349L124.48 38.6551C122.316 38.2475 115.674 38.0516 108.496 38.0516C102.411 38.0516 98.518 39.9474 95.412 43.7041C92.306 47.4608 90.755 52.8668 90.755 59.8968C90.755 67.0922 92.286 72.5961 95.349 76.4087C98.411 80.2223 102.155 81.426 107.851 82.1275C110.189 82.415 115.801 82.1812 118.398 81.6756C120.875 81.1954 123.182 80.9047 125.981 80.2633V57.3313H111.57V64.1243Z" fill="#083756"/>
<path d="M161.769 64.5003C161.439 63.2407 160.822 62.0742 159.968 61.0912C158.925 59.9326 157.672 58.9817 156.275 58.2886C154.287 57.2882 152.225 56.4432 150.107 55.761C148.736 55.3313 146.91 54.9111 146.035 54.4972C145.159 54.0833 143.283 53.6946 142.746 53.3092C142.277 52.9985 141.891 52.5789 141.621 52.0864C141.401 51.6241 141.293 51.1165 141.305 50.6046C141.305 49.0248 141.744 47.9948 142.619 47.0722C143.494 46.1496 146.199 45.6883 148.382 45.6883C149.33 45.6883 155.684 45.8305 156.828 45.7641C158.471 45.6662 160.755 42.7468 161.33 39.4008C161.406 38.949 161.286 38.9616 160.856 38.8637C159.592 38.5698 150.139 38.3013 148.253 38.3013C145.64 38.3013 142.202 38.6172 140.275 39.2302C138.504 39.7665 136.863 40.6637 135.456 41.8653C134.2 42.9598 133.22 44.3358 132.597 45.881C131.967 47.3942 131.65 49.0193 131.665 50.6583C131.635 52.2594 131.84 53.8564 132.275 55.3976C132.672 56.7083 133.352 57.9154 134.268 58.9332C135.311 60.0518 136.553 60.9667 137.93 61.6314C139.74 62.5154 141.62 63.2457 143.551 63.8147C144.967 64.2444 148.013 64.6741 148.954 65.1006C149.735 65.4409 150.476 65.8646 151.166 66.3645C151.637 66.6977 152.023 67.1385 152.291 67.6504C152.499 68.0808 152.607 68.5529 152.607 69.0311C152.607 70.8321 152.136 72.257 151.194 73.306C150.246 74.355 147.738 74.494 145.254 74.494C143.027 74.494 139.343 74.4371 137.52 74.494C135.248 74.5635 132.746 74.3992 131.201 79.1923L130.569 81.4482C132.84 81.6599 135.308 81.7357 137.368 81.9316H137.516C139.772 82.1307 142.796 82.1275 145.226 82.1275C148.139 82.1275 151.324 81.7736 153.381 81.0659C155.255 80.4622 156.984 79.4756 158.458 78.1686C159.747 77.0028 160.738 75.5457 161.349 73.919C161.952 72.2813 162.256 70.5487 162.246 68.8036C162.268 67.3549 162.108 65.9091 161.769 64.5003Z" fill="#083756"/>
</g>
<defs>
<clipPath id="clip0_0:1">
<rect width="253" height="72" fill="white" transform="translate(-22 26)"/>
</clipPath>
</defs>
</svg>

<svg xmlns="http://www.w3.org/2000/svg" width="202" height="118" fill="none" viewBox="0 0 202 118">
  <g clip-path="url(#a)">
    <path fill="#3379BC" d="M13.978 87.628c.316.29 2.404.771 3.068.93 3.112.738 5.254 1.31 8.455 1.39 9.083.23 18.84-4.604 24.07-11.672 4.277-5.788 5.336-11.839 8.287-18.367 2.527-5.605 10.657-9.842 16.025-4.423 4.613 4.654 2.98 12.303 1.264 17.646-1.523 4.768-7.182 15.166-18.37 20.743-17.352 8.625-34.303 2.098-42.8-6.247Z" style="mix-blend-mode:multiply"/>
    <path fill="#4492CE" d="M2.464 55.672S3.576 39.174 19.6 28.816c5.5-3.554 12.802-4.237 14.13.847.716 2.746.48 6.755-7.985 11.058-3.397 1.726-7.804 2.31-13.975 5.457-7.851 4.013-9.305 9.495-9.305 9.495Zm45.138 5.299a6.174 6.174 0 1 0 0-12.347 6.174 6.174 0 0 0 0 12.347Z"/>
    <path fill="#50A5D4" d="M22.31 53.499a2.822 2.822 0 0 1-2.816 2.884 2.895 2.895 0 1 1-.158-5.788A2.967 2.967 0 0 1 22.31 53.5Z" style="mix-blend-mode:multiply"/>
    <path fill="#306BB2" d="M37.747 36.965a2.483 2.483 0 1 0 0-4.967 2.483 2.483 0 0 0 0 4.967Z"/>
    <path fill="#50A5D4" d="M10.65 60.889c4.885 13.419 20.348 10.77 30.49 14.512 11.48 4.23 10.111 16.41-.082 19.62-9.545 3.008-27.425-1.263-35.51-18.853-11.573-25.184 9.156-43.807 11.115-45.162 2.187-1.514 5.327-2.93 6.51-.468 1.18 2.461-1.056 4.74-3.195 5.868-6.095 3.25-9.738 6.742-10.762 13.867-.37 2.698-.313 5.816 1.435 10.616Z" style="mix-blend-mode:multiply"/>
    <path fill="#8BD5F2" d="M4.183 72.263c1.17 3.207 3.011 7.267 5.722 7.306 2.578.037 3.387-3.773 1.296-5.963-1.843-1.927-3.508-4.322-4.304-6.521-.774-2.14-1.311-8.303.97-12.604 3.29-6.205 5.176-4.704 9.532-8.461 3.96-3.428 2.357-11.134-5.898-6.992C6.18 41.698-1.928 55.53 4.183 72.263Z" opacity=".5" style="mix-blend-mode:screen"/>
    <path fill="#083756" d="M190.676 62.79c2.442-.77 4.338-2.094 5.687-4.065 1.349-1.972 2.958-4.515 2.958-7.688 0-2.312-.316-4.259-.964-5.864a9.702 9.702 0 0 0-2.765-3.915 10.659 10.659 0 0 0-4.366-2.11 24.119 24.119 0 0 0-5.785-.597h-17.526v42.758h9.191V45.344h5.055c.989.016 1.977.091 2.957.224.818.09 1.607.351 2.316.768a4.03 4.03 0 0 1 1.511 1.687c.363.73.546 1.744.546 3.027a7.402 7.402 0 0 1-.55 3.027 4.735 4.735 0 0 1-1.51 1.93 6.25 6.25 0 0 1-2.17.99l-.121.04c-2.442.667-5.011 3.76-3.27 7.068.13.244.244.386.348.632l9.055 16.585h10.515L190.676 62.79Zm-79.106 1.334h6.003v10.237c-.503.092-1.012.156-1.523.193-.515.044-1.039.076-1.617.098-.578.022-2.3.041-2.844.063-.543.022-3.358.032-3.744.032-2.698 0-4.668-1.28-5.908-3.84-1.241-2.558-1.861-6.161-1.861-10.808 0-4.649.642-8.253 1.927-10.812 1.285-2.56 3.448-3.839 6.49-3.839 1.542 0 4.467-.072 6.436 0 .878.038 3.311-.145 4.477-.208 3.273-.177 4.673-5.005 4.673-5.005l.401-1.58c-2.164-.407-8.806-.603-15.984-.603-6.085 0-9.978 1.895-13.084 5.652s-4.657 9.163-4.657 16.193c0 7.195 1.531 12.7 4.594 16.512 3.062 3.813 6.806 5.017 12.502 5.718 2.338.288 7.95.054 10.547-.451 2.477-.48 4.784-.771 7.583-1.413V57.331H111.57v6.793Zm50.199.376a8.474 8.474 0 0 0-1.801-3.409 12.36 12.36 0 0 0-3.693-2.802c-1.988-1-4.05-1.846-6.168-2.528-1.371-.43-3.197-.85-4.072-1.264-.876-.414-2.752-.802-3.289-1.188a3.465 3.465 0 0 1-1.125-1.223 3.27 3.27 0 0 1-.316-1.481c0-1.58.439-2.61 1.314-3.533.875-.922 3.58-1.384 5.763-1.384.948 0 7.302.142 8.446.076 1.643-.098 3.927-3.017 4.502-6.363.076-.452-.044-.44-.474-.537-1.264-.294-10.717-.563-12.603-.563-2.613 0-6.051.316-7.978.93a13.402 13.402 0 0 0-4.819 2.634 10.57 10.57 0 0 0-2.859 4.016 12.14 12.14 0 0 0-.932 4.777 16.33 16.33 0 0 0 .61 4.74 9.325 9.325 0 0 0 1.993 3.535 12.344 12.344 0 0 0 3.662 2.698c1.81.884 3.69 1.615 5.621 2.184 1.416.43 4.462.86 5.403 1.286.781.34 1.522.764 2.212 1.264.471.333.857.773 1.125 1.285.208.43.316.903.316 1.381 0 1.801-.471 3.226-1.413 4.275-.948 1.049-3.456 1.188-5.94 1.188-2.227 0-5.911-.057-7.734 0-2.272.07-4.774-.095-6.319 4.698l-.632 2.256c2.271.212 4.739.288 6.799.484h.148c2.256.199 5.28.195 7.71.195 2.913 0 6.098-.353 8.155-1.061a14.23 14.23 0 0 0 5.077-2.897 10.895 10.895 0 0 0 2.891-4.25c.603-1.638.907-3.37.897-5.115a17.273 17.273 0 0 0-.477-4.304Z"/>
  </g>
  <defs>
    <clipPath id="a">
      <path fill="#fff" d="M0 0h253v72H0z" transform="translate(-22 26)"/>
    </clipPath>
  </defs>
</svg>
